Hatter-kde/status/16/slack-indicator.svg

<?xml version="1.0" encoding="UTF-8"?>
<svg width="16" height="16" version="1.1" xmlns="http://www.w3.org/2000/svg">
 <defs>
  <style id="current-color-scheme" type="text/css">.ColorScheme-Text { color:#ffffff; } .ColorScheme-Highlight { color:#4285f4; }</style>
 </defs>
 <path class="ColorScheme-Text" d="m5.5 0a1.5 1.5 0 0 0-1.5 1.5 1.5 1.5 0 0 0 1.5 1.5h1.5v-1.5a1.5 1.5 0 0 0-1.5-1.5zm4 0a1.5 1.5 0 0 0-1.5 1.5v4a1.5 1.5 0 0 0 1.5 1.5 1.5 1.5 0 0 0 1.5-1.5v-4a1.5 1.5 0 0 0-1.5-1.5zm-8 4a1.5 1.5 0 0 0-1.5 1.5 1.5 1.5 0 0 0 1.5 1.5h4a1.5 1.5 0 0 0 1.5-1.5 1.5 1.5 0 0 0-1.5-1.5zm12 0a1.5 1.5 0 0 0-1.5 1.5v1.5h1.5a1.5 1.5 0 0 0 1.5-1.5 1.5 1.5 0 0 0-1.5-1.5zm-12 4a1.5 1.5 0 0 0-1.5 1.5 1.5 1.5 0 0 0 1.5 1.5 1.5 1.5 0 0 0 1.5-1.5v-1.5zm4 0a1.5 1.5 0 0 0-1.5 1.5v4a1.5 1.5 0 0 0 1.5 1.5 1.5 1.5 0 0 0 1.5-1.5v-4a1.5 1.5 0 0 0-1.5-1.5zm4 0a1.5 1.5 0 0 0-1.5 1.5 1.5 1.5 0 0 0 1.5 1.5h4a1.5 1.5 0 0 0 1.5-1.5 1.5 1.5 0 0 0-1.5-1.5zm-1.5 4v1.5a1.5 1.5 0 0 0 1.5 1.5 1.5 1.5 0 0 0 1.5-1.5 1.5 1.5 0 0 0-1.5-1.5z" fill="currentColor"/>
</svg>

<svg xmlns="http://www.w3.org/2000/svg" width="16" height="16" version="1.1">
 <defs>
  <style id="current-color-scheme" type="text/css">
   .ColorScheme-Text { color:#f2f2f2; } .ColorScheme-Highlight { color:#4285f4; }
  </style>
 </defs>
 <path style="fill:currentColor" class="ColorScheme-Text" d="M 5.5,0 A 1.5,1.5 0 0 0 4,1.5 1.5,1.5 0 0 0 5.5,3 H 7 V 1.5 A 1.5,1.5 0 0 0 5.5,0 Z M 9.5,0 A 1.5,1.5 0 0 0 8,1.5 V 5.5 A 1.5,1.5 0 0 0 9.5,7 1.5,1.5 0 0 0 11,5.5 V 1.5 A 1.5,1.5 0 0 0 9.5,0 Z M 1.5,4 A 1.5,1.5 0 0 0 0,5.5 1.5,1.5 0 0 0 1.5,7 H 5.5 A 1.5,1.5 0 0 0 7,5.5 1.5,1.5 0 0 0 5.5,4 Z M 13.5,4 A 1.5,1.5 0 0 0 12,5.5 V 7 H 13.5 A 1.5,1.5 0 0 0 15,5.5 1.5,1.5 0 0 0 13.5,4 Z M 1.5,8 A 1.5,1.5 0 0 0 0,9.5 1.5,1.5 0 0 0 1.5,11 1.5,1.5 0 0 0 3,9.5 V 8 Z M 5.5,8 A 1.5,1.5 0 0 0 4,9.5 V 13.5 A 1.5,1.5 0 0 0 5.5,15 1.5,1.5 0 0 0 7,13.5 V 9.5 A 1.5,1.5 0 0 0 5.5,8 Z M 9.5,8 A 1.5,1.5 0 0 0 8,9.5 1.5,1.5 0 0 0 9.5,11 H 13.5 A 1.5,1.5 0 0 0 15,9.5 1.5,1.5 0 0 0 13.5,8 Z M 8,12 V 13.5 A 1.5,1.5 0 0 0 9.5,15 1.5,1.5 0 0 0 11,13.5 1.5,1.5 0 0 0 9.5,12 Z"/>
</svg>
